X:26
T:We Gather Together
%%stretchlast false
M:3/4
L:1/4
K:Bb clef=C1
"^I"[B,DBf] [B,DBf]3/2 "^IV²"[B,EBg]/ | "^I"[B,DBf] [B,FBd] "^ii"[CFBe] | "^I¹"[DFBf] "^ii7"[CGBe]3/2 "^vi"[CGBd]/ | "^V"[FAc] "^I"[B,FBd] [B,DB] | [B,Fdf] "^V¹"[A,Fcf]3/2 [A,Fcg]/ | [A,Fca] "^vi7"[G,Fdb] "^II"[C=Ecb]/ "^V/V"[C=Ecc']/ | "^V"[F,Fca] "^vi7¹"[B,Fdg]3/2 "^vi7"[G,Bdf]/ | "^II7"[CB=eg] "^V"[F,Acf]2 | [FAcf] "^V7³"[EAcf]3/2 "^ii¹"[EGcg]/ | "^V7³"[EFca] "^I¹"[DFBb] [DFBf] | [DFBf] "^vi"[CGBf]3/2 "^ii7"[CGBg]/ | "^V7"[FAe]/ "^V"[FAf]/ "^I"[B,FBd] [B,DB] | [B,DB] "^IV¹"[G,EBe]3/2 "^I²"[F,DBf]/ | "^IV"[E,EBg]/ "^IV¹"[G,EBe]/ "^V¹"[A,Ccf] [A,Fcf]/ "^V7¹"[A,Fce]/ | "^I"[B,FBd]/ [B,FBd]/ "^ii7"[CEBe] "^V7"[F,EAc]3/2 | "^I"[B,DB]/ [B,DB]2 |]
